X:14
T:Princess Royal
T:Miss MacDermott Roe
R:carolan
C:Turlough O'Carolan (1670-1738)
H:See also set dance#11 and set dance#7
Z:id:hn-carolan-14
M:C|
L:1/8
Q:1/4=140
K:Em
BA | G2F2 E2BA | G2F2 E2B2 | c2B2 A2dc | BcBA G2B2 |
ABAG FGFE | D2C2 B,2BA | G2FE GFED | E4E2 :|
|: B2 | e2>d2 e2f2 | g2G2 G2g2 | gfed cBAG | FGAF D2EF |
G2FG A2GA | B2B2 e4 | d4 c2dc | B4 A2BA |
AGGF EGFE | D2C2 B,2BA | G2FE GFED | E4 E2 :|

